scalable/actions/insert-image.svg

<svg xmlns="http://www.w3.org/2000/svg" width="24" height="24">
  <path fill="#333" d="M19.175781 1.390625l-14.3496091.0039062c-.3058241 0-.5527344.2469103-.5527344.5527344L4.2714844 16.294922c0 .305824.2469102.552734.5527344.552734l14.3496092-.005859c.305824 0 .552735-.244957.552734-.550781l.001954-14.3496098c0-.3058239-.246911-.5507812-.552735-.5507812zm-1.65625 2.2070312l-.001953 9.9316408-11.0371092.005859.0019531-9.9335935 11.0371091-.0039063zM9.5488281 17.707031c-.1614487 0-.323555.063794-.4472656.1875l-.59375.591797c-.2474211.24742-.2474211.645156 0 .892578l2.4531255 2.453125.59375.591797c.247422.24742.645156.24742.892578 0l.59375-.59375 2.451172-2.451172c.247419-.247422.247419-.645158 0-.892578l-.59375-.591797c-.247421-.247421-.645158-.247421-.892579 0l-2.003906 2.003907-2.0078124-2.003907c-.1237108-.12371-.2838635-.1875-.4453125-.1875z" color="#000" overflow="visible" style="marker:none"/>
  <path fill="#333" d="M6.561893 13.401906l10.876215-.105084-4.045743-4.045741-2.154225 2.732189-2.416937-1.944057z" opacity=".6"/>
</svg>

<?xml version="1.0" encoding="UTF-8" standalone="no"?>
<!-- Created with Inkscape (http://www.inkscape.org/) -->

<svg
   xmlns:dc="http://purl.org/dc/elements/1.1/"
   xmlns:cc="http://creativecommons.org/ns#"
   xmlns:rdf="http://www.w3.org/1999/02/22-rdf-syntax-ns#"
   xmlns:svg="http://www.w3.org/2000/svg"
   xmlns="http://www.w3.org/2000/svg"
   xmlns:sodipodi="http://sodipodi.sourceforge.net/DTD/sodipodi-0.dtd"
   xmlns:inkscape="http://www.inkscape.org/namespaces/inkscape"
   version="1.1"
   id="svg2"
   width="24"
   height="24"
   viewBox="0 0 24 24"
   sodipodi:docname="insert-image.svg"
   inkscape:version="0.92.3 (2405546, 2018-03-11)">
  <metadata
     id="metadata8">
    <rdf:RDF>
      <cc:Work
         rdf:about="">
        <dc:format>image/svg+xml</dc:format>
        <dc:type
           rdf:resource="http://purl.org/dc/dcmitype/StillImage" />
        <dc:title></dc:title>
      </cc:Work>
    </rdf:RDF>
  </metadata>
  <defs
     id="defs6" />
  <sodipodi:namedview
     pagecolor="#ffffff"
     bordercolor="#666666"
     borderopacity="1"
     objecttolerance="10"
     gridtolerance="10"
     guidetolerance="10"
     inkscape:pageopacity="0"
     inkscape:pageshadow="2"
     inkscape:window-width="1366"
     inkscape:window-height="717"
     id="namedview4"
     showgrid="false"
     inkscape:zoom="22.5"
     inkscape:cx="12"
     inkscape:cy="12"
     inkscape:window-x="0"
     inkscape:window-y="25"
     inkscape:window-maximized="1"
     inkscape:current-layer="svg2"
     showguides="true"
     inkscape:guide-bbox="true"
     inkscape:snap-global="false" />
  <path
     style="color:#000000;overflow:visible;fill:#333333;stroke-width:1.10405803;marker:none"
     d="M 19.175781 1.390625 L 4.8261719 1.3945312 C 4.5203478 1.3945312 4.2734375 1.6414415 4.2734375 1.9472656 L 4.2714844 16.294922 C 4.2714844 16.600746 4.5183946 16.847656 4.8242188 16.847656 L 19.173828 16.841797 C 19.479652 16.841797 19.726563 16.59684 19.726562 16.291016 L 19.728516 1.9414062 C 19.728516 1.6355823 19.481605 1.390625 19.175781 1.390625 z M 17.519531 3.5976562 L 17.517578 13.529297 L 6.4804688 13.535156 L 6.4824219 3.6015625 L 17.519531 3.5976562 z M 9.5488281 17.707031 C 9.3873794 17.707031 9.2252731 17.770825 9.1015625 17.894531 L 8.5078125 18.486328 C 8.2603914 18.733748 8.2603914 19.131484 8.5078125 19.378906 L 10.960938 21.832031 L 11.554688 22.423828 C 11.80211 22.671248 12.199844 22.671248 12.447266 22.423828 L 13.041016 21.830078 L 15.492188 19.378906 C 15.739607 19.131484 15.739607 18.733748 15.492188 18.486328 L 14.898438 17.894531 C 14.651017 17.64711 14.25328 17.64711 14.005859 17.894531 L 12.001953 19.898438 L 9.9941406 17.894531 C 9.8704298 17.770821 9.7102771 17.707031 9.5488281 17.707031 z "
     id="path6" />
  <path
     style="fill:#333333;stroke:none;stroke-width:0.51666397px;stroke-linecap:butt;stroke-linejoin:miter;stroke-opacity:1;opacity:0.6"
     d="M 6.561893,13.401906 17.438108,13.296822 13.392365,9.251081 11.23814,11.98327 8.821203,10.039213 Z"
     id="path4554"
     inkscape:connector-curvature="0" />
</svg>
